X:1
T:High Chin Bob
M:4/4
L:1/4
K:D
 F/2| A A F A,/2A,/2| D D F3/2 F/2| F F E F| G3 A| B A c3/2 A/2| B A c3/2 A/2|\
 B A E A| F3 F| A A F A,| D D F3/2 F/2| F/2 F3/2 E F| G3 A| B A c A|\
 B A/2 c3/2 A| B A E A| D3 A| A A F3/2 A,/2| D D F F| F F E F| G3 A|\
 B A c A| B A c3/2 A/2| B A c A| B A c3/2 A/2| B A E A| D3||
